X:211
T:Enchanted Lady, The
R:reel
D:Bothy Band: Out of the Wind, Into the Sun
D:Moher
Z:id:hn-reel-211
M:C|
K:D
ABAG FAdB|AGFD EA,~A,2|ABAG FAdB|1 ABde fddB:|2 ABde fdde||
f2df efdf|afdf edBd|f2df efdB|ABAG FDD2|
f2df efdf|afdf edBd|~A3B dfbf|afeg fddB||
P:Variations:
|:~A3G FAdB|AGFD EA~A2|~A3G FAdB|1 ABde fedB:|2 ABde fdde||
f2df efde|f2df edBd|f2df efdA|(3Bcd AG FDDe|
f2df efde|f2df edBd|ABdf afbf|afeg fddB||

